dist/static/img/vako/svg/tech-ic_03.svg

<svg width="48" height="48" viewBox="0 0 48 48" fill="none" xmlns="http://www.w3.org/2000/svg">
<g clip-path="url(#clip0_3377_476)">
<path d="M48 0H0V48.0012H48V0Z" fill="#F7DF1E"/>
<path d="M32.2438 37.5012C33.2107 39.0799 34.4686 40.2403 36.6933 40.2403C38.5623 40.2403 39.7562 39.3062 39.7562 38.0155C39.7562 36.4688 38.5295 35.921 36.4724 35.0211L35.3448 34.5373C32.0899 33.1506 29.9276 31.4134 29.9276 27.741C29.9276 24.358 32.5052 21.7827 36.5333 21.7827C39.4012 21.7827 41.4629 22.7808 42.9486 25.3942L39.4362 27.6495C38.6629 26.2628 37.8286 25.7165 36.5333 25.7165C35.2122 25.7165 34.3749 26.5546 34.3749 27.6495C34.3749 29.0027 35.213 29.5505 37.1482 30.3886L38.2758 30.8717C42.1082 32.5152 44.272 34.1906 44.272 37.9576C44.272 42.0186 41.0819 44.2435 36.7977 44.2435C32.6088 44.2435 29.9025 42.2472 28.5783 39.6308L32.2438 37.5012ZM16.3101 37.8921C17.0187 39.1492 17.6632 40.2121 19.213 40.2121C20.6949 40.2121 21.6297 39.6323 21.6297 37.3778V22.0402H26.1402V37.4387C26.1402 42.1093 23.4019 44.2351 19.405 44.2351C15.7935 44.2351 13.7021 42.3661 12.6385 40.115L16.3101 37.8921Z" fill="black"/>
</g>
<defs>
<clipPath id="clip0_3377_476">
<rect width="48" height="48.0012" fill="white"/>
</clipPath>
</defs>
</svg>

<svg width="48" height="48" viewBox="0 0 48 48" fill="none" xmlns="http://www.w3.org/2000/svg"><g clip-path="url(#clip0_3377_476)"><path d="M48 0H0v48.001h48V0z" fill="#F7DF1E"/><path d="M32.244 37.501c.967 1.579 2.225 2.74 4.45 2.74 1.868 0 3.062-.935 3.062-2.225 0-1.547-1.227-2.095-3.284-2.995l-1.127-.484c-3.255-1.386-5.417-3.124-5.417-6.796 0-3.383 2.577-5.958 6.605-5.958 2.868 0 4.93.998 6.416 3.611l-3.513 2.256c-.773-1.387-1.607-1.933-2.903-1.933-1.32 0-2.158.838-2.158 1.933 0 1.353.838 1.9 2.773 2.739l1.128.483c3.832 1.643 5.996 3.319 5.996 7.086 0 4.06-3.19 6.285-7.474 6.285-4.19 0-6.896-1.996-8.22-4.612l3.666-2.13zm-15.934.391c.709 1.257 1.353 2.32 2.903 2.32 1.482 0 2.417-.58 2.417-2.834V22.04h4.51v15.4c0 4.67-2.738 6.796-6.735 6.796-3.612 0-5.703-1.869-6.767-4.12l3.672-2.223z" fill="#000"/></g><defs><clipPath id="clip0_3377_476"><path fill="#fff" d="M0 0h48v48.001H0z"/></clipPath></defs></svg>
